X:13
T: Kang tai haozi
N: C1513
O: China,Guangdong, Guangzhou
S: II, 396]
R: Haozi]
M: 2/4
L: 1/8
K: Bb
ccb2 | bfb2 | ffb2 | bbb2 |
cg(3bcb | ccb2 | bcgb | cgb2 |
gg(3bbb | g2b2 | ccb2 | cgb2 |
gcgb | bgb2 | cgbb | bgbb |
gggb | cgb2 | bcgb | cbb2 |
cbcb | cgbb | fbff | cgbc |
ggbb | cgbb | bcbb | cbc2 |
bcgb | cbbb | cgcb | bgbb |
gcb2 | bgbb | gbgg | bgb2 |
bbbb | bgb2 | b2gb

@@@ Tune index: 6568
